HTML/img/Rhythms/rhythm6.svg

<svg width="612" height="792" viewBox="0 0 140 50" xmlns="http://www.w3.org/2000/svg"><path class="StaffLines" fill="none" stroke="#000" stroke-width=".4" stroke-linejoin="bevel" d="M4.945 23.447h130.11"/><path class="BarLine" d="M125.821 21.748a1.088 1.088 0 01-.332-.801c0-.312.11-.579.332-.801.221-.221.488-.332.8-.332.313 0 .58.111.801.332.222.222.332.489.332.801 0 .313-.11.58-.332.801a1.092 1.092 0 01-.801.332c-.312 0-.579-.111-.8-.332M125.821 26.748a1.088 1.088 0 01-.332-.801c0-.312.11-.579.332-.8.221-.222.488-.332.8-.332.313 0 .58.11.801.332.222.221.332.488.332.8 0 .313-.11.58-.332.801a1.088 1.088 0 01-.801.332c-.312 0-.579-.11-.8-.332"/><path class="BarLine" fill="none" stroke="#000" stroke-width=".8" stroke-linejoin="bevel" d="M130.155 13.446v20.002"/><path class="BarLine" fill="none" stroke="#000" stroke-width="2.5" stroke-linejoin="bevel" d="M133.805 13.446v20.002"/><path class="Stem" fill="none" stroke="#000" stroke-width=".65" stroke-linecap="round" stroke-linejoin="bevel" d="M105.262 24.386v12.187M84.71 24.386v12.187M64.158 24.386v12.187M43.607 24.386v12.187"/><path class="Note" d="M109.331 20.693c.625 0 1.153.163 1.582.488.404.352.606.795.606 1.329 0 .898-.462 1.738-1.387 2.519-.937.781-1.94 1.172-3.008 1.172-.625 0-1.152-.163-1.582-.488a1.69 1.69 0 01-.605-1.328c0-.899.469-1.739 1.406-2.52.911-.781 1.908-1.172 2.988-1.172M88.779 20.693c.625 0 1.153.163 1.582.488.404.352.606.795.606 1.329 0 .898-.462 1.738-1.387 2.519-.937.781-1.94 1.172-3.008 1.172-.625 0-1.152-.163-1.582-.488a1.69 1.69 0 01-.605-1.328c0-.899.469-1.739 1.406-2.52.912-.781 1.908-1.172 2.988-1.172M68.228 20.693c.625 0 1.152.163 1.582.488.404.352.605.795.605 1.329 0 .898-.462 1.738-1.386 2.519-.938.781-1.94 1.172-3.008 1.172-.625 0-1.153-.163-1.582-.488a1.687 1.687 0 01-.606-1.328c0-.899.469-1.739 1.407-2.52.911-.781 1.907-1.172 2.988-1.172M47.676 20.693c.625 0 1.152.163 1.582.488.404.352.606.795.606 1.329 0 .898-.463 1.738-1.387 2.519-.938.781-1.94 1.172-3.008 1.172-.625 0-1.152-.163-1.582-.488a1.687 1.687 0 01-.606-1.328c0-.899.469-1.739 1.407-2.52.911-.781 1.907-1.172 2.988-1.172"/><path class="Clef" d="M17.95 28.447h-1.836c-.144 0-.215-.065-.215-.195v-9.61c0-.13.071-.195.215-.195h1.836c.13 0 .195.065.195.195v9.61c0 .13-.065.195-.195.195m-4.414 0H11.68c-.13 0-.195-.065-.195-.195v-9.61c0-.13.065-.195.195-.195h1.856c.143 0 .214.065.214.195v9.61c0 .13-.071.195-.214.195"/><path class="TimeSig" d="M31.023 13.701c.39 0 .722-.046.996-.137.273-.091.449-.137.527-.137.091 0 .163.026.215.078a.29.29 0 01.078.137.3.3 0 01-.039.117l-5.684 6.602h3.34v-2.617c0-.17.046-.313.137-.43.156-.13.286-.208.391-.234.169-.079.377-.261.625-.547.208-.235.455-.645.742-1.231.039-.078.097-.117.176-.117.156 0 .247.091.273.274v4.902h1.426c.182 0 .286.098.312.293 0 .195-.104.293-.312.293H32.8v.156c0 .521.13.964.391 1.328.299.365.651.547 1.054.547.157 0 .235.078.235.234 0 .157-.078.235-.235.235-.273 0-.716-.039-1.328-.117-.56-.092-.996-.137-1.308-.137-.326 0-.762.045-1.309.137-.586.078-1.022.117-1.309.117-.156 0-.234-.078-.234-.235 0-.156.078-.234.234-.234.404 0 .756-.182 1.055-.547.274-.364.41-.807.41-1.328v-.156h-3.34c-.221 0-.377-.052-.468-.156a.372.372 0 01-.157-.313c0-.039.098-.176.293-.41a9.65 9.65 0 00.703-.957c.287-.443.56-.899.821-1.367a7.815 7.815 0 00.683-1.836c.196-.703.293-1.42.293-2.149 0-.208.091-.312.274-.312.039 0 .123.019.254.058.039.013.12.033.244.059.124.026.224.052.303.078.234.039.455.059.664.059"/><path class="TimeSig" d="M31.023 23.701c.39 0 .722-.045.996-.136.273-.092.449-.137.527-.137.091 0 .163.026.215.078a.29.29 0 01.078.137.3.3 0 01-.039.117l-5.684 6.601h3.34v-2.617c0-.169.046-.312.137-.429.156-.131.286-.209.391-.235.169-.078.377-.26.625-.547.208-.234.455-.644.742-1.23.039-.078.097-.117.176-.117.156 0 .247.091.273.273v4.902h1.426c.182 0 .286.098.312.293 0 .196-.104.293-.312.293H32.8v.157c0 .521.13.963.391 1.328.299.364.651.547 1.054.547.157 0 .235.078.235.234 0 .156-.078.234-.235.234-.273 0-.716-.039-1.328-.117-.56-.091-.996-.136-1.308-.136-.326 0-.762.045-1.309.136-.586.078-1.022.117-1.309.117-.156 0-.234-.078-.234-.234 0-.156.078-.234.234-.234.404 0 .756-.183 1.055-.547.274-.365.41-.807.41-1.328v-.157h-3.34c-.221 0-.377-.052-.468-.156a.369.369 0 01-.157-.312c0-.039.098-.176.293-.41.222-.261.456-.58.703-.958.287-.442.56-.898.821-1.367a7.815 7.815 0 00.683-1.836 7.96 7.96 0 00.293-2.148c0-.208.091-.313.274-.313.039 0 .123.02.254.059.039.013.12.033.244.059.124.026.224.052.303.078.234.039.455.058.664.058"/></svg>

<?xml version="1.0" encoding="utf-8"?>
<svg width="612px" height="792px" viewBox="0 0 140 50" xmlns="http://www.w3.org/2000/svg">
  <title>Rythm rythms</title>
  <desc>Generated by MuseScore 2.0.3</desc>
  <polyline class="StaffLines" fill="none" stroke="#000000" stroke-width="0.40" stroke-linejoin="bevel" points="4.945 23.447 135.055 23.447"/>
  <path class="BarLine" d="M 125.821 21.748 C 125.599 21.527 125.489 21.26 125.489 20.947 C 125.489 20.635 125.599 20.368 125.821 20.146 C 126.042 19.925 126.309 19.814 126.621 19.814 C 126.934 19.814 127.201 19.925 127.422 20.146 C 127.644 20.368 127.754 20.635 127.754 20.947 C 127.754 21.26 127.644 21.527 127.422 21.748 C 127.201 21.969 126.934 22.08 126.621 22.08 C 126.309 22.08 126.042 21.969 125.821 21.748"/>
  <path class="BarLine" d="M 125.821 26.748 C 125.599 26.527 125.489 26.26 125.489 25.947 C 125.489 25.635 125.599 25.368 125.821 25.147 C 126.042 24.925 126.309 24.815 126.621 24.815 C 126.934 24.815 127.201 24.925 127.422 25.147 C 127.644 25.368 127.754 25.635 127.754 25.947 C 127.754 26.26 127.644 26.527 127.422 26.748 C 127.201 26.97 126.934 27.08 126.621 27.08 C 126.309 27.08 126.042 26.97 125.821 26.748"/>
  <polyline class="BarLine" fill="none" stroke="#000000" stroke-width="0.80" stroke-linejoin="bevel" points="130.155 13.446 130.155 33.448"/>
  <polyline class="BarLine" fill="none" stroke="#000000" stroke-width="2.50" stroke-linejoin="bevel" points="133.805 13.446 133.805 33.448"/>
  <polyline class="Stem" fill="none" stroke="#000000" stroke-width="0.65" stroke-linecap="round" stroke-linejoin="bevel" points="105.262 24.386 105.262 36.573"/>
  <polyline class="Stem" fill="none" stroke="#000000" stroke-width="0.65" stroke-linecap="round" stroke-linejoin="bevel" points="84.71 24.386 84.71 36.573"/>
  <polyline class="Stem" fill="none" stroke="#000000" stroke-width="0.65" stroke-linecap="round" stroke-linejoin="bevel" points="64.158 24.386 64.158 36.573"/>
  <polyline class="Stem" fill="none" stroke="#000000" stroke-width="0.65" stroke-linecap="round" stroke-linejoin="bevel" points="43.607 24.386 43.607 36.573"/>
  <path class="Note" d="M 109.331 20.693 C 109.956 20.693 110.484 20.856 110.913 21.181 C 111.317 21.533 111.519 21.976 111.519 22.51 C 111.519 23.408 111.057 24.248 110.132 25.029 C 109.195 25.81 108.192 26.201 107.124 26.201 C 106.499 26.201 105.972 26.038 105.542 25.713 C 105.139 25.361 104.937 24.918 104.937 24.385 C 104.937 23.486 105.406 22.646 106.343 21.865 C 107.254 21.084 108.251 20.693 109.331 20.693"/>
  <path class="Note" d="M 88.779 20.693 C 89.404 20.693 89.932 20.856 90.361 21.181 C 90.765 21.533 90.967 21.976 90.967 22.51 C 90.967 23.408 90.505 24.248 89.58 25.029 C 88.643 25.81 87.64 26.201 86.572 26.201 C 85.947 26.201 85.42 26.038 84.99 25.713 C 84.587 25.361 84.385 24.918 84.385 24.385 C 84.385 23.486 84.854 22.646 85.791 21.865 C 86.703 21.084 87.699 20.693 88.779 20.693"/>
  <path class="Note" d="M 68.228 20.693 C 68.853 20.693 69.38 20.856 69.81 21.181 C 70.214 21.533 70.415 21.976 70.415 22.51 C 70.415 23.408 69.953 24.248 69.029 25.029 C 68.091 25.81 67.089 26.201 66.021 26.201 C 65.396 26.201 64.868 26.038 64.439 25.713 C 64.035 25.361 63.833 24.918 63.833 24.385 C 63.833 23.486 64.302 22.646 65.24 21.865 C 66.151 21.084 67.147 20.693 68.228 20.693"/>
  <path class="Note" d="M 47.676 20.693 C 48.301 20.693 48.828 20.856 49.258 21.181 C 49.662 21.533 49.864 21.976 49.864 22.51 C 49.864 23.408 49.401 24.248 48.477 25.029 C 47.539 25.81 46.537 26.201 45.469 26.201 C 44.844 26.201 44.317 26.038 43.887 25.713 C 43.483 25.361 43.281 24.918 43.281 24.385 C 43.281 23.486 43.75 22.646 44.688 21.865 C 45.599 21.084 46.595 20.693 47.676 20.693"/>
  <path class="Clef" d="M 17.95 28.447 L 16.114 28.447 C 15.97 28.447 15.899 28.382 15.899 28.252 L 15.899 18.642 C 15.899 18.512 15.97 18.447 16.114 18.447 L 17.95 18.447 C 18.08 18.447 18.145 18.512 18.145 18.642 L 18.145 28.252 C 18.145 28.382 18.08 28.447 17.95 28.447 M 13.536 28.447 L 11.68 28.447 C 11.55 28.447 11.485 28.382 11.485 28.252 L 11.485 18.642 C 11.485 18.512 11.55 18.447 11.68 18.447 L 13.536 18.447 C 13.679 18.447 13.75 18.512 13.75 18.642 L 13.75 28.252 C 13.75 28.382 13.679 28.447 13.536 28.447"/>
  <path class="TimeSig" d="M 31.023 13.701 C 31.413 13.701 31.745 13.655 32.019 13.564 C 32.292 13.473 32.468 13.427 32.546 13.427 C 32.637 13.427 32.709 13.453 32.761 13.505 C 32.8 13.544 32.826 13.59 32.839 13.642 C 32.839 13.668 32.826 13.707 32.8 13.759 L 27.116 20.361 L 30.456 20.361 L 30.456 17.744 C 30.456 17.574 30.502 17.431 30.593 17.314 C 30.749 17.184 30.879 17.106 30.984 17.08 C 31.153 17.001 31.361 16.819 31.609 16.533 C 31.817 16.298 32.064 15.888 32.351 15.302 C 32.39 15.224 32.448 15.185 32.527 15.185 C 32.683 15.185 32.774 15.276 32.8 15.459 L 32.8 20.361 L 34.226 20.361 C 34.408 20.361 34.512 20.459 34.538 20.654 C 34.538 20.849 34.434 20.947 34.226 20.947 L 32.8 20.947 L 32.8 21.103 C 32.8 21.624 32.93 22.067 33.191 22.431 C 33.49 22.796 33.842 22.978 34.245 22.978 C 34.402 22.978 34.48 23.056 34.48 23.212 C 34.48 23.369 34.402 23.447 34.245 23.447 C 33.972 23.447 33.529 23.408 32.917 23.33 C 32.357 23.238 31.921 23.193 31.609 23.193 C 31.283 23.193 30.847 23.238 30.3 23.33 C 29.714 23.408 29.278 23.447 28.991 23.447 C 28.835 23.447 28.757 23.369 28.757 23.212 C 28.757 23.056 28.835 22.978 28.991 22.978 C 29.395 22.978 29.747 22.796 30.046 22.431 C 30.32 22.067 30.456 21.624 30.456 21.103 L 30.456 20.947 L 27.116 20.947 C 26.895 20.947 26.739 20.895 26.648 20.791 C 26.543 20.712 26.491 20.608 26.491 20.478 C 26.491 20.439 26.589 20.302 26.784 20.068 C 27.006 19.807 27.24 19.488 27.487 19.111 C 27.774 18.668 28.047 18.212 28.308 17.744 C 28.594 17.21 28.822 16.598 28.991 15.908 C 29.187 15.205 29.284 14.488 29.284 13.759 C 29.284 13.551 29.375 13.447 29.558 13.447 C 29.597 13.447 29.681 13.466 29.812 13.505 C 29.851 13.518 29.932 13.538 30.056 13.564 C 30.18 13.59 30.28 13.616 30.359 13.642 C 30.593 13.681 30.814 13.701 31.023 13.701"/>
  <path class="TimeSig" d="M 31.023 23.701 C 31.413 23.701 31.745 23.656 32.019 23.565 C 32.292 23.473 32.468 23.428 32.546 23.428 C 32.637 23.428 32.709 23.454 32.761 23.506 C 32.8 23.545 32.826 23.591 32.839 23.643 C 32.839 23.669 32.826 23.708 32.8 23.76 L 27.116 30.361 L 30.456 30.361 L 30.456 27.744 C 30.456 27.575 30.502 27.432 30.593 27.315 C 30.749 27.184 30.879 27.106 30.984 27.08 C 31.153 27.002 31.361 26.82 31.609 26.533 C 31.817 26.299 32.064 25.889 32.351 25.303 C 32.39 25.225 32.448 25.186 32.527 25.186 C 32.683 25.186 32.774 25.277 32.8 25.459 L 32.8 30.361 L 34.226 30.361 C 34.408 30.361 34.512 30.459 34.538 30.654 C 34.538 30.85 34.434 30.947 34.226 30.947 L 32.8 30.947 L 32.8 31.104 C 32.8 31.625 32.93 32.067 33.191 32.432 C 33.49 32.796 33.842 32.979 34.245 32.979 C 34.402 32.979 34.48 33.057 34.48 33.213 C 34.48 33.369 34.402 33.447 34.245 33.447 C 33.972 33.447 33.529 33.408 32.917 33.33 C 32.357 33.239 31.921 33.194 31.609 33.194 C 31.283 33.194 30.847 33.239 30.3 33.33 C 29.714 33.408 29.278 33.447 28.991 33.447 C 28.835 33.447 28.757 33.369 28.757 33.213 C 28.757 33.057 28.835 32.979 28.991 32.979 C 29.395 32.979 29.747 32.796 30.046 32.432 C 30.32 32.067 30.456 31.625 30.456 31.104 L 30.456 30.947 L 27.116 30.947 C 26.895 30.947 26.739 30.895 26.648 30.791 C 26.543 30.713 26.491 30.609 26.491 30.479 C 26.491 30.44 26.589 30.303 26.784 30.069 C 27.006 29.808 27.24 29.489 27.487 29.111 C 27.774 28.669 28.047 28.213 28.308 27.744 C 28.594 27.21 28.822 26.598 28.991 25.908 C 29.187 25.205 29.284 24.489 29.284 23.76 C 29.284 23.552 29.375 23.447 29.558 23.447 C 29.597 23.447 29.681 23.467 29.812 23.506 C 29.851 23.519 29.932 23.539 30.056 23.565 C 30.18 23.591 30.28 23.617 30.359 23.643 C 30.593 23.682 30.814 23.701 31.023 23.701"/>
</svg>
